X:1
T:Title
%%score { 1 | ( 2 3 ) }
L:1/8
Q:1/4=86
M:2/4
K:D
V:1 treble nm="Grand Piano"
V:2 bass 
V:3 bass 
V:1
 [A,FA][A,DF] [A,DF][A,EG] | [DGB][DFA] [DFA]F | [DFA][A,EG] [A,EG][A,CE] | [A,DF]4 | %4
w: W.~R.~Potter * * *||||
 [A,FA][A,DF] [A,DF][A,EG] | [DGB][DFA] [DFA][DF] | [A,CE][CEA] [B,E^G][DEB] | [CEA]4 | %8
w: ||||
 [A,CE]>[A,DF] [A,EG][A,EG] | [A,DF][A,EG] [DFA]2 | [DGB][DBd] [DAc][DGB] | [GB][FA] [FA]2 | %12
w: ||||
 [Fd][FA] FA | GB B2 | AA [EGc]>[EGc] | [DFd]4 |] %16
w: ||||
V:2
 D,D, D,D, | D,D, z D | A,,A,, A,,A,, | D,4 | D,D, D,D, | D,D, z A, | E,E, E,E, | A,,4 | %8
 A,,>A,, A,,A,, | D,D, D,2 | G,G, G,G, | [D,D][D,D] [D,D]2 | [D,A,][D,A,] [D,A,D][F,A,D] | %13
 [G,B,D][G,DG] [G,DG]2 | [A,CE][A,CE] A,,>A,, | D,4 |] %16
V:3
 x4 | z2 D,2 | x4 | x4 | x4 | z2 D,2 | x4 | x4 | x4 | x4 | x4 | x4 | x4 | x4 | x4 | x4 |] %16

